src/next/cmd/ko/lc_fontheight.svg

<svg height="24" width="24" xmlns="http://www.w3.org/2000/svg" xmlns:xlink="http://www.w3.org/1999/xlink"><linearGradient id="a" gradientUnits="userSpaceOnUse" x1="64.871498" x2="59.053398" y1="110.5457" y2="-11.6344"><stop offset="0" stop-color="#1c1c1c"/><stop offset=".5" stop-color="#888"/><stop offset="1"/></linearGradient><linearGradient id="b"><stop offset="0" stop-color="#0968ef"/><stop offset="1" stop-color="#aecffc"/></linearGradient><linearGradient id="c" gradientTransform="matrix(0 1.6493491 -2.8863614 0 69.36342 -101.60458)" gradientUnits="userSpaceOnUse" x1="130.70859" x2="103.74631" xlink:href="#b" y1="20.118034" y2="20.118034"/><linearGradient id="d" gradientTransform="matrix(0 -1.6493491 -2.8863614 0 69.36342 235.42448)" gradientUnits="userSpaceOnUse" x1="130.70859" x2="103.74631" xlink:href="#b" y1="20.118034" y2="20.118034"/><g transform="matrix(.171875 0 0 .171875 1 1)"><path d="m54.892799 3.2812959v-2.79470843z" fill="#fff" fill-opacity=".756881"/><path d="m100.0715 11.638v104.724h10.4724v-41.8896h15.7086v-10.4724h-15.7086v-52.362zm-73.3068 10.4724v10.4724h47.1258c-.245316 10.508724-1.59912 30.040032-6.221281 40.807105-5.813632 13.542546-20.131812 27.274115-40.904519 27.263495v10.4724c26.353093.01361 42.566143-15.396873 50.009799-32.736476 7.443662-17.339609 7.937446-36.559285 7.588401-48.649618v-7.629306z" fill="url(#a)" fill-rule="evenodd" stroke-width="5.2362"/><path d="m-.01068526 52.3647.01068526 29.0905h29.0905v-29.0905zm5.82878526 5.8181h17.4543v17.4543h-17.4543z" fill="#797979"/><g fill-rule="evenodd"><path d="m11.6362 81.4552v31.3023l-8.65908-4.94805 11.54544 23.0909 11.54545-23.0909-8.65909 4.94805v-31.3023z" fill="url(#c)"/><path d="m11.6362 52.3647v-31.3023l-8.65908 4.94804 11.54544-23.09089 11.54545 23.09089-8.65909-4.94804v31.3023z" fill="url(#d)"/></g></g></svg>

<?xml version="1.0" encoding="UTF-8" standalone="no"?>
<svg
   xmlns:dc="http://purl.org/dc/elements/1.1/"
   xmlns:cc="http://creativecommons.org/ns#"
   xmlns:rdf="http://www.w3.org/1999/02/22-rdf-syntax-ns#"
   xmlns:svg="http://www.w3.org/2000/svg"
   xmlns="http://www.w3.org/2000/svg"
   xmlns:xlink="http://www.w3.org/1999/xlink"
   xmlns:sodipodi="http://sodipodi.sourceforge.net/DTD/sodipodi-0.dtd"
   xmlns:inkscape="http://www.inkscape.org/namespaces/inkscape"
   height="24"
   width="24"
   version="1.1"
   id="svg41"
   sodipodi:docname="lc_fontheight.svg"
   inkscape:version="0.92.4 (unknown)"
   inkscape:export-filename="/home/rizmut/Dokumen/Rizmut/Github/libreoffice-style-karasa-jaga/build/next/cmd/ko/lc_fontheight.png"
   inkscape:export-xdpi="96"
   inkscape:export-ydpi="96">
  <metadata
     id="metadata47">
    <rdf:RDF>
      <cc:Work
         rdf:about="">
        <dc:format>image/svg+xml</dc:format>
        <dc:type
           rdf:resource="http://purl.org/dc/dcmitype/StillImage" />
        <dc:title></dc:title>
      </cc:Work>
    </rdf:RDF>
  </metadata>
  <defs
     id="defs45" />
  <sodipodi:namedview
     pagecolor="#ffffff"
     bordercolor="#666666"
     borderopacity="1"
     objecttolerance="10"
     gridtolerance="10"
     guidetolerance="10"
     inkscape:pageopacity="0"
     inkscape:pageshadow="2"
     inkscape:window-width="1366"
     inkscape:window-height="714"
     id="namedview43"
     showgrid="true"
     inkscape:zoom="7.230957"
     inkscape:cx="1.1379068"
     inkscape:cy="6.3016934"
     inkscape:window-x="0"
     inkscape:window-y="28"
     inkscape:window-maximized="1"
     inkscape:current-layer="g35">
    <inkscape:grid
       type="xygrid"
       id="grid24" />
  </sodipodi:namedview>
  <linearGradient
     id="a">
    <stop
       offset="0"
       stop-color="#1c1c1c"
       id="stop2" />
    <stop
       offset=".5"
       stop-color="#888"
       id="stop4" />
    <stop
       offset="1"
       id="stop6" />
  </linearGradient>
  <linearGradient
     id="b"
     gradientUnits="userSpaceOnUse"
     x1="-320.86826"
     x2="-327.26657"
     xlink:href="#a"
     y1="109.44938"
     y2="-18.516544" />
  <linearGradient
     id="c"
     gradientUnits="userSpaceOnUse"
     x1="128"
     x2="229.81453"
     xlink:href="#a"
     y1="63.999958"
     y2="63.999958" />
  <linearGradient
     id="d"
     gradientUnits="userSpaceOnUse"
     x1="64.871498"
     x2="59.053398"
     xlink:href="#a"
     y1="110.5457"
     y2="-11.6344" />
  <linearGradient
     id="e">
    <stop
       offset="0"
       stop-color="#0968ef"
       id="stop12" />
    <stop
       offset="1"
       stop-color="#aecffc"
       id="stop14" />
  </linearGradient>
  <linearGradient
     id="f"
     gradientTransform="matrix(0,1.6493491,-2.8863614,0,69.36342,-101.60458)"
     gradientUnits="userSpaceOnUse"
     x1="130.70859"
     x2="103.74631"
     xlink:href="#e"
     y1="20.118034"
     y2="20.118034" />
  <linearGradient
     id="g"
     gradientTransform="matrix(0,-1.6493491,-2.8863614,0,69.36342,235.42448)"
     gradientUnits="userSpaceOnUse"
     x1="130.70859"
     x2="103.74631"
     xlink:href="#e"
     y1="20.118034"
     y2="20.118034" />
  <g
     id="g35"
     transform="matrix(0.171875,0,0,0.171875,1,1)">
    <path
       id="path23"
       d="M 54.892799,3.2812959 V 0.48658747 Z"
       inkscape:connector-curvature="0"
       style="fill:#ffffff;fill-opacity:0.756881" />
    <path
       id="path29"
       d="m 100.0715,11.638 v 104.724 h 10.4724 V 74.4724 h 15.7086 V 64 H 110.5439 V 11.638 Z M 26.7647,22.1104 V 32.5828 H 73.8905 C 73.645184,43.091524 72.29138,62.622832 67.669219,73.389905 61.855587,86.932451 47.537407,100.66402 26.7647,100.6534 v 10.4724 C 53.117793,111.13941 69.330843,95.728927 76.774499,78.389324 84.218161,61.049715 84.711945,41.830039 84.3629,29.739706 V 22.1104 Z"
       style="fill:url(#d);fill-rule:evenodd;stroke-width:5.23619986"
       inkscape:connector-curvature="0" />
    <path
       id="path31"
       d="M -0.01068526,52.3647 0,81.4552 H 29.0905 V 52.3647 Z M 5.8181,58.1828 H 23.2724 V 75.6371 H 5.8181 Z"
       inkscape:connector-curvature="0"
       style="fill:#797979" />
    <g
       id="g39"
       style="fill-rule:evenodd">
      <path
         id="path35"
         d="m 11.6362,81.4552 v 31.3023 l -8.65908,-4.94805 11.54544,23.0909 11.54545,-23.0909 -8.65909,4.94805 V 81.4552 Z"
         style="fill:url(#f)"
         inkscape:connector-curvature="0" />
      <path
         id="path37"
         d="M 11.6362,52.3647 V 21.0624 L 2.97712,26.01044 14.52256,2.91955 26.06801,26.01044 17.40892,21.0624 v 31.3023 z"
         style="fill:url(#g)"
         inkscape:connector-curvature="0" />
    </g>
  </g>
</svg>
